assets/Kaaba/Flat/kaaba_flat.svg

<svg width="32" height="32" viewBox="0 0 32 32" fill="none" xmlns="http://www.w3.org/2000/svg">
<path d="M2 7.51L16 2L21.548 15.8284L16 29.92L2 24.42V14.4026L3.45846 13.2135L2 12.0429V7.51Z" fill="#321B41"/>
<path d="M16 14.29L16.8923 12.2473L16 10.33C15.57 10.33 15.14 10.36 14.72 10.41L2 12V14.41L16 14.29ZM9.87 18.0799L10.63 19.0699C10.76 19.2399 10.97 19.2699 11.1 19.1399L11.92 18.3399C12.06 18.1999 12.06 17.9499 11.92 17.7799L11.1 16.7799C10.97 16.6199 10.76 16.5999 10.63 16.7399L9.87 17.5499C9.75 17.6899 9.75 17.9199 9.87 18.0799ZM16 19.9999L14.02 19.6799C13.6 19.6099 13.26 19.1999 13.26 18.7599V17.6199C13.26 17.1799 13.6 16.8499 14.02 16.8799L16 17.0599L17.0781 18.6576L16 19.9999ZM4.37 17.3799L3.85 18.0399C3.77 18.1499 3.63 18.1299 3.55 17.9999L3.06 17.2199C2.98 17.0999 2.98 16.9099 3.06 16.7999L3.55 16.1299C3.63 16.0199 3.77 16.0299 3.85 16.1599L4.37 16.9399C4.46 17.0699 4.46 17.2699 4.37 17.3799ZM8.19 18.7999L5.68 18.4199C5.41 18.3799 5.2 18.0699 5.21 17.7099V16.8099C5.21 16.4599 5.42 16.1999 5.68 16.2199L8.19 16.4199C8.5 16.4399 8.76 16.7799 8.76 17.1699V18.1799C8.76 18.5699 8.5 18.8499 8.19 18.7999Z" fill="#FFB02E"/>
<path d="M30 7.51L16 2V29.92L30 24.42V13.9939L28.6353 12.9162L30 12.0615V7.51Z" fill="#533566"/>
<path d="M30 14V12L17.28 10.41C16.86 10.36 16.43 10.33 16 10.33V14.29H16.21L30 14ZM20.08 18.33L20.9 19.14C21.03 19.27 21.24 19.24 21.37 19.06L22.13 18.07C22.25 17.91 22.25 17.67 22.13 17.54L21.37 16.73C21.24 16.59 21.03 16.61 20.9 16.77L20.08 17.77C19.94 17.94 19.94 18.19 20.08 18.33ZM18.74 17.62V18.76C18.74 19.2 18.4 19.61 17.98 19.68L16 20V17.06L17.98 16.88C18.4 16.85 18.74 17.18 18.74 17.62ZM28.94 17.22L28.45 18C28.37 18.13 28.23 18.15 28.15 18.05L27.63 17.39C27.54 17.28 27.54 17.08 27.63 16.95L28.15 16.17C28.23 16.04 28.37 16.03 28.45 16.14L28.94 16.8C29.02 16.91 29.02 17.09 28.94 17.22ZM26.8 16.82V17.72C26.8 18.07 26.59 18.38 26.33 18.43L23.82 18.81C23.51 18.86 23.25 18.58 23.25 18.19V17.18C23.25 16.79 23.51 16.46 23.82 16.43L26.33 16.23C26.59 16.21 26.8 16.47 26.8 16.82Z" fill="#FCD53F"/>
</svg>

<svg xmlns="http://www.w3.org/2000/svg" width="32" height="32" fill="none"><path fill="#321B41" d="M2 7.51 16 2l5.548 13.828L16 29.92l-14-5.5V14.403l1.458-1.19L2 12.043V7.51Z"/><path fill="#FFB02E" d="m16 14.29.892-2.043L16 10.33c-.43 0-.86.03-1.28.08L2 12v2.41l14-.12Zm-6.13 3.79.76.99c.13.17.34.2.47.07l.82-.8c.14-.14.14-.39 0-.56l-.82-1c-.13-.16-.34-.18-.47-.04l-.76.81c-.12.14-.12.37 0 .53ZM16 20l-1.98-.32c-.42-.07-.76-.48-.76-.92v-1.14c0-.44.34-.77.76-.74l1.98.18 1.078 1.598L16 20ZM4.37 17.38l-.52.66c-.08.11-.22.09-.3-.04l-.49-.78a.397.397 0 0 1 0-.42l.49-.67c.08-.11.22-.1.3.03l.52.78c.09.13.09.33 0 .44Zm3.82 1.42-2.51-.38c-.27-.04-.48-.35-.47-.71v-.9c0-.35.21-.61.47-.59l2.51.2c.31.02.57.36.57.75v1.01c0 .39-.26.67-.57.62Z"/><path fill="#533566" d="M30 7.51 16 2v27.92l14-5.5V13.994l-1.365-1.078L30 12.062V7.51Z"/><path fill="#FCD53F" d="M30 14v-2l-12.72-1.59c-.42-.05-.85-.08-1.28-.08v3.96h.21L30 14Zm-9.92 4.33.82.81c.13.13.34.1.47-.08l.76-.99c.12-.16.12-.4 0-.53l-.76-.81c-.13-.14-.34-.12-.47.04l-.82 1c-.14.17-.14.42 0 .56Zm-1.34-.71v1.14c0 .44-.34.85-.76.92L16 20v-2.94l1.98-.18c.42-.03.76.3.76.74Zm10.2-.4-.49.78c-.08.13-.22.15-.3.05l-.52-.66c-.09-.11-.09-.31 0-.44l.52-.78c.08-.13.22-.14.3-.03l.49.66c.08.11.08.29 0 .42Zm-2.14-.4v.9c0 .35-.21.66-.47.71l-2.51.38c-.31.05-.57-.23-.57-.62v-1.01c0-.39.26-.72.57-.75l2.51-.2c.26-.02.47.24.47.59Z"/></svg>
